X:1
T:Blood on the Capitol Steps - Chorus - Vocal
M:4/4
L:1/8
K:Cmin
"Bb"D2 D2 "F"F2 F2 | "Gm"G4 G2 AG |
w: Who will speak for the wi-dow's son
"Eb"B2 B2 "Bb"B2 B2 | "F"A6 AG |
w: Who will name what the pow-ers have done
"Cm"G2 G2 "F"A2 A2 | "Gm"G4 B2 AG |
w: A-mos said let jus-tice roll down like a flood
"Eb"B2 B2 "Bb"d2 "F"c2 | "Gm"B8 |
w: Pink gra-nite stained with right-eous blood
